static/images/sentry-logo-black.svg

<svg viewBox="0 0 717.11 249.68" xmlns="http://www.w3.org/2000/svg"><path d="m430.56 143.76-44.49-57.43h-11.07v77h11.22v-59l45.74 59h9.82v-77h-11.22zm-112-14.27h39.84v-10h-39.88v-23.18h45v-10h-56.45v77h57v-10h-45.55zm-46.84-9.78c-15.57-3.72-19.83-6.69-19.83-13.84 0-6.46 5.71-10.81 14.22-10.81 7.09 0 14.07 2.51 21.3 7.67l6.06-8.54c-8-6.13-16.65-9-27.13-9-15.25 0-25.89 9-25.89 21.92 0 13.84 9 18.63 25.5 22.63 14.51 3.35 18.93 6.5 18.93 13.5s-6 11.38-15.35 11.38c-9.07 0-16.81-3-25-9.82l-6.79 8.08a47.82 47.82 0 0 0 31.41 11.6c16.49 0 27.14-8.87 27.14-22.6-.02-11.65-6.91-17.88-24.61-22.17zm373.9-33.37-23.19 36.31-23-36.31h-13.43l30.51 46.54v30.47h11.56v-30.82l30.5-46.19zm-194.75 10.42h25.23v66.58h11.57v-66.58h25.23v-10.43h-62zm115.53 36.52c11.64-3.21 18-11.37 18-23 0-14.78-10.84-24-28.28-24h-34.12v77h11.45v-27.66h19.42l19.54 27.72h13.37l-21.1-29.58zm-33-7.52v-29.23h21.6c11.27 0 17.74 5.31 17.74 14.56 0 8.91-6.92 14.67-17.62 14.67zm-388.5-60.33a13.75 13.75 0 0 0 -23.81 0l-19.6 33.95 5 2.87a96.14 96.14 0 0 1 47.83 77.4h-13.76a82.4 82.4 0 0 0 -41-65.54l-5-2.86-18.26 31.75 5 2.87a46.35 46.35 0 0 1 22.46 33.78h-31.43a2.27 2.27 0 0 1 -2-3.41l8.76-15.17a31.87 31.87 0 0 0 -10-5.71l-8.67 15.14a13.75 13.75 0 0 0 11.91 20.62h43.25v-5.73a57.16 57.16 0 0 0 -23.74-46.39l6.88-11.92a70.93 70.93 0 0 1 30.56 58.26v5.74h36.65v-5.73a107.62 107.62 0 0 0 -48.84-90.05l13.91-24.13a2.27 2.27 0 0 1 3.93 0l60.66 105.07a2.27 2.27 0 0 1 -2 3.41h-14.19c.18 3.83.2 7.66 0 11.48h14.24a13.75 13.75 0 0 0 11.91-20.62z" fill="#221f20"/></svg>

<svg xmlns="http://www.w3.org/2000/svg" viewBox="0 0 717.11 249.68"><title>sentry-logo-black</title><path d="M430.56,143.76,386.07,86.33H375v77h11.22v-59l45.74,59h9.82v-77H430.56Zm-112-14.27H358.4v-10H318.52V96.31h45v-10H307.07v77h57v-10H318.52Zm-46.84-9.78c-15.57-3.72-19.83-6.69-19.83-13.84,0-6.46,5.71-10.81,14.22-10.81,7.09,0,14.07,2.51,21.3,7.67l6.06-8.54c-8-6.13-16.65-9-27.13-9-15.25,0-25.89,9-25.89,21.92,0,13.84,9,18.63,25.5,22.63,14.51,3.35,18.93,6.5,18.93,13.5s-6,11.38-15.35,11.38c-9.07,0-16.81-3-25-9.82l-6.79,8.08a47.82,47.82,0,0,0,31.41,11.6c16.49,0,27.14-8.87,27.14-22.6C296.27,130.23,289.38,124,271.68,119.71Zm373.9-33.37-23.19,36.31-23-36.31H586l30.51,46.54v30.47h11.56V132.53l30.5-46.19ZM450.87,96.76H476.1v66.58h11.57V96.76h25.23V86.33h-62ZM566.4,133.28c11.64-3.21,18-11.37,18-23,0-14.78-10.84-24-28.28-24H522v77h11.45V135.62h19.42l19.54,27.72h13.37l-21.1-29.58Zm-33-7.52V96.53H555c11.27,0,17.74,5.31,17.74,14.56,0,8.91-6.92,14.67-17.62,14.67ZM144.9,65.43a13.75,13.75,0,0,0-23.81,0l-19.6,33.95,5,2.87a96.14,96.14,0,0,1,47.83,77.4H140.56a82.4,82.4,0,0,0-41-65.54l-5-2.86L76.3,143l5,2.87a46.35,46.35,0,0,1,22.46,33.78H72.33a2.27,2.27,0,0,1-2-3.41l8.76-15.17a31.87,31.87,0,0,0-10-5.71L60.42,170.5a13.75,13.75,0,0,0,11.91,20.62h43.25v-5.73A57.16,57.16,0,0,0,91.84,139l6.88-11.92a70.93,70.93,0,0,1,30.56,58.26v5.74h36.65v-5.73A107.62,107.62,0,0,0,117.09,95.3L131,71.17a2.27,2.27,0,0,1,3.93,0l60.66,105.07a2.27,2.27,0,0,1-2,3.41H179.4c.18,3.83.2,7.66,0,11.48h14.24a13.75,13.75,0,0,0,11.91-20.62Z" style="fill:#221f20"/></svg>
